!!!OTL: 129. Freylekhs
!!!Genre:	Freylekhs
!!!Mode:	Minor
!!!Listening/dance:	dance
!!!:	*g:dor; *B-:
!!!One_Mode:	no
**kern
*I"P1
*clefG2
*k[b-e-]
*g:
*M2/4
*>A
!LO:TX:a:i:t=G-minor
=1
8dL
16gL
16gJJ
16gLL
16g
16g
16gJJ
=2
(16aLL
16b-J)
8gJ
8r
8g
=3
(16aLL
16b-)
(16g
16b-JJ)
(16aLL
16b-)
(16g
16b-JJ)
=4
16aLL
16g
16f#X
16e-JJ
4d
=5
8dL
16gL
16gJJ
16gLL
16g
16g
16gJJ
=6
(16aLL
16b-J)
8gJ
8r
8d
=7
8.b-L
16aJk
(16aLL
16g)
(16g
16f#XJJ)
=8
2g
=9||
*>B
!LO:TX:a:i:t=G-dorian
8gL
16ddL
16ddJJ
8ddL
8ddJ
=10
(16cc#XLL
16ee-J
8ddJ)
4b-
=11
(16b-LL
16aJ)
8gJ
8aL
8b-J
=12
8cc#XL
8ddJ
16b-LL
16aJ
8gJ
=13
8gL
16ddL
16ddJJ
8ddL
8ddJ
=14
(16cc#XLL
16ee-J
8ddJ)
4b-
=15
8aL
8g
8a
8b-J
=16
(16aLL
16b-JJ)
4g
8r
*>bM
*B-:
=17!|:
*>C
!LO:TX:a:i:t=Bb-major
(4.b-
8f)
=18
(4.b-
8f)
=19
8b-L
8f
8b-
8fJ
=20
8b-L
8fJ
4b-
=21
8b-L
8cc
8dd
8ee-J
=22
(8ddtL
8cc)
(8ccT
8b-J)
=23
8b-L
8cc
8dd
8ee-J
=24
8ddtL
8cc
8ccT
8b-J
=25
8b-L
8cc
8dd
8ee-J
=26
8ffL
8dd
8ee-
8ccJ
*>C1
=27
8ddL
8b-J
(8ffL
24ee-L
24dd
24ee-JJ)
=28
2dd
*>C2
=29:|!
8ddL
8b-
8cc
8aJ
=30
2b-
*>eM
*g:
=31||
*>D
!LO:TX:a:i:t=G-minor
8aL
8b-
8cc
8dd-XJ
=32
8ccL
16b-L
16aJJ
4g
=33
8.b-L
16aJk
16b-LL
16a
16g
16f#XJJ
=34
8gL
8a
8b-
8gJ
=35
8aL
8b-
8cc#X
8ddJ
=36
8ccnL
16b-L
16aJJ
4g
=37
8.b-L
16aJk
16b-LL
16a
16g
16f#XJJ
=38
4g
4r
==
*-
